build/service/ErrorTriangleSolid.svg

<svg xmlns="http://www.w3.org/2000/svg" fill="none" viewBox="0 0 24 24" focusable="false"><path d="M0 0H24V24H0z"/><path fill="#74767B" fill-rule="evenodd" d="M18.8382 21L5.16213 21C2.86036 21 1.41606 18.5148 2.55551 16.5149L9.39355 4.51283C10.5443 2.49296 13.456 2.49296 14.6068 4.51283L21.4448 16.5149C22.5843 18.5148 21.14 21 18.8382 21ZM12.6501 14.1234C12.6501 14.4823 12.3591 14.7734 12.0001 14.7734C11.6411 14.7734 11.3501 14.4823 11.3501 14.1234L11.3501 8.97715C11.3501 8.61816 11.6411 8.32715 12.0001 8.32715C12.3591 8.32715 12.6501 8.61816 12.6501 8.97715L12.6501 14.1234ZM11.9999 17.8289C12.4693 17.8289 12.8499 17.4483 12.8499 16.9789C12.8499 16.5095 12.4693 16.1289 11.9999 16.1289C11.5305 16.1289 11.1499 16.5095 11.1499 16.9789C11.1499 17.4483 11.5305 17.8289 11.9999 17.8289Z"/></svg>

<svg xmlns="http://www.w3.org/2000/svg" fill="none" viewBox="0 0 24 24" focusable="false"><path fill="#74767B" fill-rule="evenodd" d="M18.83 21H5.16c-2.3 0-3.75-2.49-2.61-4.49l6.84-12c1.15-2.02 4.06-2.02 5.21 0l6.84 12c1.14 2-.3 4.49-2.61 4.49m-6.19-6.88c0 .36-.29.65-.64.65-.36 0-.65-.29-.65-.65V8.97c0-.36.29-.65.65-.65.35 0 .64.29.64.65zm-.64 3.7c.46 0 .85-.38.85-.85a.856.856 0 0 0-1.71 0c0 .47.39.85.86.85"/></svg>
